!!!COM: Palestrina, Giovanni Perluigi da
!!!OPR: Dies sanctificatus
!!!OTL: Sanctus
**kern	**kern	**kern	**kern
*Ibass	*Itenor	*Icalto	*Icant
!Bassus	!Tenor	!Altus	!Cantus
*clefF4	*clefGv2	*clefG2	*clefG2
*k[]	*k[]	*k[]	*k[]
*G:mix	*G:mix	*G:mix	*G:mix
*M4/2	*M4/2	*M4/2	*M4/2
=1	=1	=1	=1
0r	0r	2r	0dd
.	.	1g	.
.	.	4f	.
.	.	4e	.
=2	=2	=2	=2
0r	2r	2f	1dd
.	1g	2g	.
.	.	1c	1ee
.	4f	.	.
.	4e	.	.
=3	=3	=3	=3
0r	2f	2d	2dd
.	2g	2e	2b
.	1c	2A	1cc
.	.	[2a	.
=4	=4	=4	=4
1r	2d	2a]	1b
.	2e	1g	.
2r	2c	.	[1a
[2d	2d	2f	.
=5	=5	=5	=5
2d]	1A	2.e	1a]
4c#	.	.	.
4B	.	4d	.
2c#	1r	2e	2r
2d	.	2f#	2a
=6	=6	=6	=6
2G	2r	2g	2b
2A	1a	2e	2cc
1D	.	2f	2.dd
.	2f	2d	.
.	.	.	4cc
=7	=7	=7	=7
0r	2g	2e	2b
.	2d	2f	2a
.	1G	2.g	2b
.	.	.	4g
.	.	4f	4a
=8	=8	=8	=8
0r	1r	2e	4b
.	.	.	4cc
.	.	2d	2.dd
.	[1d	2f	.
.	.	.	4cc
.	.	[2g	2b
=9	=9	=9	=9
1r	1d]	2g]	1a
.	.	2f#	.
[1G	1d	1g	[1b
=10	=10	=10	=10
2G]	1e	1g	2b]
4F	.	.	2cc
4E	.	.	.
2F	2d	2a	1dd
2G	2B	2g	.
=11	=11	=11	=11
4C	1c	1g	1ee
4D	.	.	.
4E	.	.	.
4F	.	.	.
[1G	1B	2r	2.dd
.	.	2d	.
.	.	.	4cc
=12	=12	=12	=12
2G]	2r	2e	2b
2F	2A	2f	2dd
1E	2B	[1g	1ee
.	2c	.	.
=13	=13	=13	=13
1D	2.d	2g]	2r
.	.	2f	2a
.	4c	.	.
1r	2B	2g	2b
.	2A	2a	2cc
=14	=14	=14	=14
1r	2B	2d	2.dd
.	4G	1g	.
.	4A	.	4cc
2r	4B	.	2b
.	4c	.	.
2D	[2d	2f	2a
=15	=15	=15	=15
2E	4d]	2e	2g
.	4c	.	.
2F	1c	2c	2a
2G	.	2e	4g
.	.	.	4a
2G	2B	2d	4b
.	.	.	4g
=16	=16	=16	=16
1C	2.c	1e	4a
.	.	.	4g
.	.	.	1g
.	4B	.	.
1D	1A	[1d	.
.	.	.	2f#
=17	=17	=17	=17
0G	2G	2d]	1g
.	1d	2B	.
.	.	[1B	2r
.	2d	.	[2dd
=18	=18	=18	=18
0r	2.G	1B]	2dd]
.	.	.	2dd
.	4A	.	.
.	2B	2r	2.g
.	2c	[2g	.
.	.	.	4a
=19	=19	=19	=19
0r	2G	2g]	2b
.	4c	2g	1cc
.	4d	.	.
.	4e	1c	.
.	4f	.	.
.	[2g	.	2b
=20	=20	=20	=20
0r	2g]	1d	2a
.	2f#	.	2a
.	2g	2e	[1g
.	2e	[2c	.
=21	=21	=21	=21
1.G	1d	2c]	1g]
.	.	4B	.
.	.	4A	.
.	2r	2B	2r
2G	2d	2B	[2gg
=22	=22	=22	=22
2.C	4e	4c	2gg]
.	4f	4d	.
.	4g	4e	2gg
4D	4f	4f	.
2E	4e	4g	[1cc
.	4d	8f	.
.	.	8g	.
[2F	4c	[2a	.
.	4B	.	.
=23	=23	=23	=23
2F]	4A	2a]	1cc]
.	4B	.	.
2E	1c	2g	.
2F	.	2r	1dd
2G	2B	[2g	.
=24	=24	=24	=24
1C	2.c	2g]	0ee
.	.	2g	.
.	4B	.	.
2r	2A	1c	.
[2c	2c	.	.
=25	=25	=25	=25
2c]	2G	1d	1dd
2B	1g	.	.
1c	.	2e	2.cc
.	2g	[2g	.
.	.	.	4b
=26	=26	=26	=26
1r	2c	2g]	1a
.	2d	2f#	.
2r	1e	1g	2g
[2c	.	.	4gg
.	.	.	4ff
=27	=27	=27	=27
2c]	1e	2.g	4ee
.	.	.	4dd
2c	.	.	1cc
.	.	4g	.
2F	1d	2a	.
2G	.	4g	2b
.	.	4f	.
=28	=28	=28	=28
2A	2c	2e	1cc
1F	1a	2f	.
.	.	1c	2f
2E	2g	.	2g
=29	=29	=29	=29
2D	2f	1r	2.a
2C	2e	.	.
.	.	.	4g
4D	1d	[1a	2f
4E	.	.	.
4F	.	.	2f
4G	.	.	.
=30	=30	=30	=30
2A	2.c	2a]	2e
2A	.	2a	1ee
.	4d	.	.
2c	4e	1g	.
.	4d	.	.
2c	4e	.	2ee
.	4f	.	.
=31	=31	=31	=31
1G	1g	1b-	1dd
1d	1r	2a	1ff
.	.	4f	.
.	.	4g	.
=32	=32	=32	=32
0r	0r	4a	2ee
.	.	4b	.
.	.	4cc	2cc
.	.	4a	.
.	.	2b	2dd
.	.	[2cc	[2ee
=33	=33	=33	=33
0r	0e	2cc]	2ee]
.	.	4b	4dd
.	.	4a	4cc
.	.	2g	2b
.	.	2cc	[2a
=34	=34	=34	=34
0r	1e	2b	2a]
.	.	2e	2g
.	1d	2.f	[1a
.	.	4e	.
=35	=35	=35	=35
1r	1f	1d	1a]
1A	1e	1c	2r
.	.	.	4a
.	.	.	4b
=36	=36	=36	=36
2A	2.c	2r	4cc
.	.	.	4dd
2A	.	1cc	4ee
.	4d	.	4ff
1G	4e	.	2gg
.	4f	.	.
.	2g	[2b-	[2dd
=37	=37	=37	=37
1B-	2f	4b-]	4dd]
.	.	4a	4ee
.	2d	4f	2.ff
.	.	4g	.
2A	1f	2a	.
.	.	.	4ee
2F	.	2a	[2dd
=38	=38	=38	=38
2G	1e	2g	2dd]
2A	.	2e	2cc#
4D	1d	1f	2dd
4E	.	.	.
4F	.	.	2a
4G	.	.	.
=39	=39	=39	=39
1A	2c	1e	2a
.	4A	.	1cc
.	4B	.	.
2F	4c	2A	.
.	4d	.	.
2G	[2e	2B	[2b
=40	=40	=40	=40
1A	4e]	1c	4b]
.	4c	.	4a
.	1f	.	1a
1B-	.	1d	.
.	4e	.	2g
.	4d	.	.
=41	=41	=41	=41
0A	2c#	2e	1a
.	1d	2f	.
.	.	1e	2r
.	2c#	.	2ee
=42	=42	=42	=42
4D	1d	2r	1.ff
4E	.	.	.
4F	.	2a	.
4G	.	.	.
4A	1r	[1cc	.
4B	.	.	.
2c	.	.	2ee
=43	=43	=43	=43
1G	1r	2cc]	1dd
.	.	2b	.
1r	2r	2a	2cc
.	2d	[2b	[2dd
=44	=44	=44	=44
1r	1f	4b]	4dd]
.	.	4a	4cc
.	.	1a	2a
1E	1e	.	1b
.	.	2g#	.
=45	=45	=45	=45
1.F	2c	1.a	1a
.	2.d	.	.
.	.	.	2r
.	4c	.	.
2E	[2c	2g	2ee
=46	=46	=46	=46
1D	2c]	2f	1.ff
.	2B	2d	.
1C	2c	1g	.
.	2e	.	2ee
=47	=47	=47	=47
4D	1.f	2r	2dd
4E	.	.	.
4F	.	1a	2.cc
4G	.	.	.
2.A	.	.	.
.	.	.	4b
.	2e	[2cc	[2a
4G	.	.	.
=48	=48	=48	=48
2F	1d	2cc]	2a]
2G	.	2b	4g
.	.	.	4f
2A	2c	[1a	2e
2D	[2d	.	4f
.	.	.	4g
=49	=49	=49	=49
1F	4d]	2a]	4a
.	4c	.	4b
.	2A	2a	4cc
.	.	.	4dd
2E	1B	2g	2ee
2D	.	4f	2ff
.	.	4g	.
=50	=50	=50	=50
1C	2.c	4a	1ee
.	.	4g	.
.	.	1g	.
.	4B	.	.
1D	1A	.	1dd
.	.	2f#	.
=51	=51	=51	=51
0G	0G	0g	0b
==	==	==	==
*-	*-	*-	*-
!!!CDT: 1525/^1526/-1594/2/2
!!!OCY: Italia
!!!AGN: Mass (Parody)
!!!AST: renaissance, vocal
!!!ASW: Motet 1563 (Palestrina)
!!!PWK: Masses, Book 6
!!!RNB: Cadence finals: D,A,C
!!!YOR: Le Opere Complete, v. 21, p. 1
!!!YOO: Rome, Italy: Fratelli Scalera
!!!END: 1992//
!!!EED: John Miller
!!!YEC: Copyright 2000, John Miller
!!!YEN: United States of America
!!!YEM: Rights to all derivative electronic formats reserved.
!!!YEM: Refer to licensing agreement for further details.
!!!YEM: This file must be accompanied by the licensing agreement.
!!!YEM: A copy of the licensing agreement may be found at http://www.music-cog.ohio-state.edu/HumdrumDatabases/Palestrina/license.txt
!!!EMD: converted to Humdrum by Bret Aarden
